icons/Bun-Dark.svg

<svg width="256" height="256" viewBox="0 0 256 256" fill="none" xmlns="http://www.w3.org/2000/svg">
<rect width="256" height="256" rx="60" fill="#242938"/>
<path d="M206.709 91.2411C206.304 90.8108 205.873 90.3804 205.443 89.9753C205.012 89.5703 204.607 89.1146 204.177 88.7095C203.747 88.3044 203.342 87.8487 202.911 87.4437C202.481 87.0386 202.076 86.5829 201.645 86.1778C201.215 85.7728 200.81 85.3171 200.38 84.912C199.949 84.507 199.544 84.0513 199.114 83.6462C198.683 83.2411 198.278 82.7854 197.848 82.3804C210.405 94.7214 217.599 111.51 217.873 129.115C217.873 171.064 175.291 205.191 122.936 205.191C93.6199 205.191 67.392 194.482 49.949 177.697L51.2148 178.963L52.4806 180.229L53.7464 181.494L55.0123 182.76L56.2781 184.026L57.5439 185.292L58.8097 186.558C76.2275 204.051 103.038 215.317 133.063 215.317C185.417 215.317 228 181.191 228 139.368C228 121.494 220.304 104.558 206.709 91.2411Z" fill="black"/>
<path d="M211.544 129.114C211.544 167.62 171.874 198.836 122.937 198.836C74 198.836 34.3291 167.62 34.3291 129.114C34.3291 105.241 49.519 84.1519 72.8608 71.6456C96.2026 59.1392 110.734 46.3291 122.937 46.3291C135.139 46.3291 145.57 56.7848 173.013 71.6456C196.355 84.1519 211.544 105.241 211.544 129.114Z" fill="#FBF0DF"/>
<path d="M211.544 129.114C211.532 124.167 210.851 119.245 209.519 114.481C202.608 198.785 99.7722 202.835 59.3418 177.62C77.5166 191.707 99.9446 199.189 122.937 198.835C171.798 198.835 211.544 167.57 211.544 129.114Z" fill="#F6DECE"/>
<path d="M88.8355 67.0127C100.152 60.2278 115.19 47.4937 129.975 47.4683C127.7 46.7332 125.327 46.349 122.937 46.3291C116.81 46.3291 110.279 49.4937 102.051 54.2532C99.1899 55.924 96.2279 57.7721 93.0887 59.6962C87.1899 63.3418 80.4304 67.4684 72.8355 71.5949C48.7342 84.6329 34.3291 106.127 34.3291 129.114C34.3291 130.127 34.3291 131.139 34.3291 132.127C49.6709 77.9241 77.5443 73.7975 88.8355 67.0127Z" fill="#FFFEFC"/>
<path fill-rule="evenodd" clip-rule="evenodd" d="M115.645 52.7341C115.681 58.7119 114.426 64.6269 111.966 70.0753C109.506 75.5236 105.899 80.3769 101.392 84.3038C100.683 84.9367 101.24 86.1519 102.152 85.7974C110.683 82.481 122.202 72.5569 117.342 52.5316C117.139 51.3924 115.645 51.6962 115.645 52.7341ZM121.392 52.7341C124.49 57.7884 126.458 63.4527 127.162 69.3388C127.865 75.2249 127.287 81.1935 125.468 86.8354C125.164 87.7215 126.253 88.481 126.861 87.7468C132.405 80.6582 137.24 66.5822 122.759 51.3924C122.025 50.7341 120.886 51.7468 121.392 52.6329V52.7341ZM128.38 52.3037C133.231 55.7381 137.289 60.1727 140.28 65.3086C143.272 70.4444 145.127 76.1621 145.721 82.0759C145.696 82.289 145.753 82.5038 145.882 82.6758C146.01 82.8477 146.2 82.9636 146.412 82.9994C146.623 83.0352 146.84 82.9882 147.018 82.8681C147.196 82.748 147.321 82.5641 147.367 82.3544C149.696 73.519 148.38 58.4556 129.215 50.6329C128.202 50.2278 127.544 51.5949 128.38 52.2025V52.3037ZM81.6454 78.6329C87.4157 76.909 92.7583 73.9891 97.3252 70.0634C101.892 66.1377 105.581 61.2941 108.152 55.8481C108.607 54.9367 110.051 55.2911 109.823 56.3037C105.443 76.5569 90.7847 80.7848 81.6708 80.2278C80.7087 80.2531 80.734 78.9114 81.6454 78.6329Z" fill="#CCBEA7"/>
<path d="M122.937 205.19C70.5823 205.19 28 171.063 28 129.114C28 103.798 43.6456 80.1773 69.8481 66.0253C77.4431 61.9747 83.9494 57.8988 89.7469 54.3291C92.9368 52.3544 95.9494 50.5063 98.8608 48.7848C107.747 43.519 115.342 40 122.937 40C130.532 40 137.165 43.038 145.468 47.9494C148 49.3924 150.532 50.962 153.241 52.6836C159.544 56.5823 166.658 60.9874 176.025 66.0253C202.228 80.1773 217.874 103.772 217.874 129.114C217.874 171.063 175.291 205.19 122.937 205.19ZM122.937 46.3291C116.81 46.3291 110.279 49.4937 102.051 54.2532C99.1899 55.9241 96.2279 57.7722 93.0887 59.6962C87.1899 63.3418 80.4304 67.4684 72.8355 71.595C48.7342 84.633 34.3291 106.127 34.3291 129.114C34.3291 167.57 74.076 198.861 122.937 198.861C171.798 198.861 211.544 167.57 211.544 129.114C211.544 106.127 197.139 84.633 173.013 71.6456C163.443 66.5823 155.975 61.8228 149.924 58.076C147.165 56.3798 144.633 54.8101 142.329 53.4177C134.658 48.8608 129.063 46.3291 122.937 46.3291Z" fill="black"/>
<path d="M140.785 147.596C139.648 152.254 137.059 156.429 133.393 159.52C130.64 162.188 127.077 163.863 123.266 164.279C119.341 163.929 115.652 162.25 112.81 159.52C109.181 156.415 106.629 152.241 105.519 147.596C105.482 147.32 105.509 147.039 105.598 146.775C105.686 146.512 105.834 146.272 106.029 146.074C106.225 145.876 106.463 145.725 106.725 145.634C106.988 145.542 107.268 145.512 107.544 145.545H138.785C139.059 145.516 139.337 145.549 139.596 145.643C139.855 145.736 140.09 145.887 140.283 146.085C140.475 146.282 140.621 146.521 140.708 146.782C140.795 147.044 140.821 147.322 140.785 147.596Z" fill="#B71422"/>
<path d="M112.81 159.722C115.647 162.453 119.322 164.148 123.241 164.532C127.151 164.142 130.816 162.448 133.646 159.722C134.551 158.878 135.397 157.973 136.177 157.013C134.618 155.243 132.713 153.812 130.579 152.806C128.446 151.8 126.13 151.242 123.772 151.165C121.25 151.224 118.78 151.896 116.575 153.122C114.37 154.348 112.496 156.092 111.114 158.203C111.696 158.734 112.203 159.241 112.81 159.722Z" fill="#FF6164"/>
<path d="M113.215 157.722C114.471 156.099 116.077 154.783 117.914 153.871C119.752 152.958 121.772 152.475 123.823 152.456C127.614 152.568 131.227 154.094 133.95 156.734C134.532 156.101 135.089 155.443 135.62 154.785C132.4 151.718 128.143 149.974 123.696 149.899C121.32 149.919 118.977 150.466 116.837 151.499C114.696 152.532 112.811 154.026 111.317 155.874C111.915 156.524 112.549 157.141 113.215 157.722Z" fill="black"/>
<path d="M123.165 165.798C118.946 165.428 114.976 163.644 111.899 160.734C107.98 157.42 105.222 152.941 104.026 147.95C103.94 147.505 103.954 147.047 104.068 146.609C104.182 146.171 104.392 145.764 104.684 145.418C105.031 144.999 105.469 144.665 105.965 144.441C106.46 144.217 107.001 144.11 107.545 144.127H138.785C139.328 144.115 139.867 144.225 140.361 144.449C140.856 144.672 141.295 145.003 141.646 145.418C141.934 145.765 142.141 146.173 142.251 146.612C142.36 147.05 142.37 147.507 142.279 147.95C141.083 152.941 138.324 157.42 134.405 160.734C131.335 163.639 127.375 165.422 123.165 165.798ZM107.545 147.063C107.139 147.063 107.038 147.241 107.013 147.291C108.083 151.62 110.504 155.495 113.924 158.355C116.425 160.819 119.677 162.378 123.165 162.785C126.643 162.382 129.891 160.843 132.405 158.405C135.815 155.54 138.226 151.666 139.291 147.342C139.236 147.261 139.16 147.197 139.07 147.157C138.981 147.116 138.882 147.102 138.785 147.114L107.545 147.063Z" fill="black"/>
<path d="M161.469 149.164C169.648 149.164 176.279 145.265 176.279 140.455C176.279 135.646 169.648 131.747 161.469 131.747C153.289 131.747 146.659 135.646 146.659 140.455C146.659 145.265 153.289 149.164 161.469 149.164Z" fill="#FEBBD0"/>
<path d="M84.8358 149.164C93.0152 149.164 99.6459 145.265 99.6459 140.455C99.6459 135.646 93.0152 131.747 84.8358 131.747C76.6564 131.747 70.0256 135.646 70.0256 140.455C70.0256 145.265 76.6564 149.164 84.8358 149.164Z" fill="#FEBBD0"/>
<path fill-rule="evenodd" clip-rule="evenodd" d="M91.7978 136.962C94.5578 136.967 97.2573 136.153 99.5546 134.623C101.852 133.093 103.644 130.917 104.703 128.368C105.763 125.82 106.043 123.014 105.508 120.307C104.972 117.599 103.646 115.111 101.696 113.158C99.746 111.204 97.2605 109.873 94.5539 109.333C91.8473 108.793 89.0412 109.067 86.4908 110.122C83.9404 111.177 81.7603 112.965 80.2264 115.26C78.6925 117.554 77.8738 120.252 77.8738 123.012C77.8738 126.708 79.34 130.252 81.9505 132.867C84.561 135.482 88.1026 136.955 91.7978 136.962ZM154.507 136.962C157.27 136.982 159.977 136.181 162.284 134.66C164.591 133.14 166.395 130.968 167.466 128.421C168.538 125.874 168.828 123.066 168.302 120.354C167.775 117.641 166.454 115.146 164.508 113.185C162.561 111.224 160.076 109.885 157.367 109.339C154.658 108.792 151.848 109.063 149.293 110.115C146.739 111.168 144.554 112.956 143.017 115.252C141.479 117.548 140.659 120.249 140.659 123.012C140.652 126.697 142.105 130.233 144.701 132.848C147.297 135.462 150.823 136.942 154.507 136.962Z" fill="black"/>
<path fill-rule="evenodd" clip-rule="evenodd" d="M87.494 123.898C88.5315 123.903 89.5472 123.6 90.4123 123.028C91.2775 122.455 91.9531 121.638 92.3536 120.681C92.7541 119.724 92.8615 118.669 92.6622 117.651C92.4629 116.633 91.9658 115.697 91.2339 114.961C90.502 114.226 89.5683 113.724 88.551 113.52C87.5338 113.316 86.4788 113.418 85.5198 113.814C84.5607 114.21 83.7407 114.882 83.1638 115.744C82.5868 116.606 82.2788 117.62 82.2788 118.658C82.2788 120.043 82.8274 121.373 83.8048 122.355C84.7821 123.337 86.1085 123.892 87.494 123.898ZM150.203 123.898C151.24 123.903 152.256 123.6 153.121 123.028C153.986 122.455 154.662 121.638 155.063 120.681C155.463 119.724 155.57 118.669 155.371 117.651C155.172 116.633 154.675 115.697 153.943 114.961C153.211 114.226 152.277 113.724 151.26 113.52C150.243 113.316 149.188 113.418 148.229 113.814C147.27 114.21 146.45 114.882 145.873 115.744C145.296 116.606 144.988 117.62 144.988 118.658C144.988 120.035 145.529 121.356 146.496 122.337C147.462 123.318 148.776 123.878 150.152 123.898H150.203Z" fill="white"/>
</svg>

<svg xmlns="http://www.w3.org/2000/svg" width="256" height="256" fill="none" viewBox="0 0 256 256"><rect width="256" height="256" fill="#242938" rx="60"/><path fill="#000" d="M206.7 91.24q-.6-.65-1.26-1.26c-.43-.41-.83-.87-1.26-1.27s-.84-.86-1.27-1.27c-.43-.4-.83-.86-1.26-1.26s-.84-.86-1.27-1.27c-.43-.4-.84-.86-1.27-1.26s-.83-.86-1.26-1.27a67 67 0 0 1 20.02 46.74c0 41.94-42.58 76.07-94.93 76.07-29.32 0-55.55-10.7-73-27.5l1.27 1.27 1.27 1.27 1.27 1.26 1.26 1.27 1.27 1.27 1.26 1.26 1.27 1.27c17.42 17.5 44.23 28.76 74.25 28.76 52.36 0 94.94-34.13 94.94-75.95 0-17.88-7.7-34.81-21.3-48.13"/><path fill="#FBF0DF" d="M211.54 129.11c0 38.51-39.67 69.73-88.6 69.73-48.94 0-88.61-31.22-88.61-69.73 0-23.87 15.19-44.96 38.53-57.46s37.87-25.32 50.08-25.32c12.2 0 22.63 10.45 50.07 25.32 23.35 12.5 38.53 33.6 38.53 57.46"/><path fill="#F6DECE" d="M211.54 129.11c0-4.94-.69-9.87-2.02-14.63-6.91 84.3-109.75 88.36-150.18 63.14a101.3 101.3 0 0 0 63.6 21.22c48.86 0 88.6-31.27 88.6-69.73"/><path fill="#FFFEFC" d="M88.84 67.01c11.31-6.78 26.35-19.52 41.13-19.54a24 24 0 0 0-7.03-1.14c-6.13 0-12.66 3.16-20.89 7.92-2.86 1.67-5.82 3.52-8.96 5.45a413 413 0 0 1-20.25 11.9c-24.1 13.03-38.51 34.53-38.51 57.51v3.02C49.67 77.93 77.54 73.8 88.83 67"/><path fill="#CCBEA7" fill-rule="evenodd" d="M115.65 52.73a41.5 41.5 0 0 1-14.26 31.57c-.7.64-.15 1.85.76 1.5 8.53-3.32 20.05-13.24 15.2-33.27-.21-1.14-1.7-.83-1.7.2m5.74 0a41.1 41.1 0 0 1 4.08 34.1c-.3.9.78 1.65 1.4.92 5.53-7.1 10.37-21.17-4.11-36.36-.73-.66-1.87.36-1.37 1.24zm6.99-.43a41.6 41.6 0 0 1 17.34 29.78.84.84 0 0 0 1.65.27c2.33-8.83 1.01-23.9-18.15-31.72-1.02-.4-1.68.96-.84 1.57zM81.65 78.63a43 43 0 0 0 26.5-22.78c.46-.91 1.9-.56 1.67.45-4.38 20.26-19.04 24.48-28.15 23.93-.96.02-.94-1.32-.02-1.6" clip-rule="evenodd"/><path fill="#000" d="M122.94 205.19c-52.36 0-94.94-34.13-94.94-76.08 0-25.31 15.65-48.93 41.85-63.08 7.6-4.06 14.1-8.13 19.9-11.7a559 559 0 0 1 9.11-5.55c8.89-5.26 16.48-8.78 24.08-8.78s14.22 3.04 22.53 7.95a189 189 0 0 1 7.77 4.73c6.3 3.9 13.42 8.3 22.78 13.35 26.2 14.15 41.85 37.74 41.85 63.08 0 41.95-42.58 76.08-94.93 76.08m0-158.86c-6.13 0-12.66 3.16-20.89 7.92-2.86 1.67-5.82 3.52-8.96 5.45a413 413 0 0 1-20.25 11.9c-24.1 13.03-38.51 34.53-38.51 57.51 0 38.46 39.75 69.75 88.6 69.75 48.87 0 88.61-31.29 88.61-69.75 0-22.98-14.4-44.48-38.53-57.46-9.57-5.07-17.03-9.83-23.09-13.57q-4.13-2.56-7.6-4.66c-7.66-4.56-13.26-7.1-19.38-7.1"/><path fill="#B71422" d="M140.79 147.6a22.6 22.6 0 0 1-7.4 11.92 17.2 17.2 0 0 1-10.12 4.76 17.3 17.3 0 0 1-10.46-4.76 22.6 22.6 0 0 1-7.3-11.92 1.82 1.82 0 0 1 2.03-2.06h31.24a1.82 1.82 0 0 1 2 2.06"/><path fill="#FF6164" d="M112.81 159.72a17.5 17.5 0 0 0 10.43 4.81 17.5 17.5 0 0 0 10.4-4.8 27 27 0 0 0 2.54-2.72 17.3 17.3 0 0 0-12.4-5.84 15.6 15.6 0 0 0-12.67 7.03c.59.53 1.1 1.04 1.7 1.52"/><path fill="#000" d="M113.22 157.72a13.6 13.6 0 0 1 10.6-5.26c3.8.1 7.4 1.63 10.13 4.27q.87-.96 1.67-1.94a17.7 17.7 0 0 0-11.92-4.9 16.1 16.1 0 0 0-12.38 5.98q.9.98 1.9 1.85"/><path fill="#000" d="M123.17 165.8a18.8 18.8 0 0 1-11.27-5.07 24 24 0 0 1-7.87-12.78 3 3 0 0 1 .65-2.53 3.6 3.6 0 0 1 2.86-1.3h31.24a3.6 3.6 0 0 1 2.87 1.3 3 3 0 0 1 .63 2.53 24 24 0 0 1-7.87 12.78 18.8 18.8 0 0 1-11.24 5.07m-15.62-18.74c-.41 0-.51.18-.54.23 1.07 4.33 3.5 8.2 6.91 11.06a15.8 15.8 0 0 0 9.25 4.44 16 16 0 0 0 9.24-4.38 21 21 0 0 0 6.88-11.07.5.5 0 0 0-.5-.23z"/><path fill="#FEBBD0" d="M161.47 149.16c8.18 0 14.8-3.9 14.8-8.7 0-4.81-6.62-8.71-14.8-8.71s-14.81 3.9-14.81 8.7c0 4.81 6.63 8.71 14.8 8.71m-76.62 0c8.18 0 14.8-3.9 14.8-8.7 0-4.81-6.62-8.71-14.8-8.71s-14.81 3.9-14.81 8.7c0 4.81 6.63 8.71 14.8 8.71"/><path fill="#000" fill-rule="evenodd" d="M91.8 136.96a13.95 13.95 0 1 0 .05-27.9 13.95 13.95 0 0 0-.05 27.9m62.7 0a13.95 13.95 0 1 0 .21-27.89 13.95 13.95 0 0 0-.2 27.9" clip-rule="evenodd"/><path fill="#fff" fill-rule="evenodd" d="M87.5 123.9a5.25 5.25 0 1 0 .04-10.5 5.25 5.25 0 0 0-.05 10.5m62.7 0a5.25 5.25 0 1 0-.05 0z" clip-rule="evenodd"/></svg>
